X: 2175
T: Auld Toon O'Ayr
R: strathspey
M: 4/4
K: Dmajor
F|D2 F>A d3A|B/A/B/c/ d>B A<F F>A|B/A/B/c/ d>B A<F F>A|A<F F>D E2F>E|
D2 F>A d3A|B/A/B/c/ d>B A<F F>A|D2 F>A d2 f>e|(3efg (3gfe d<B B>d|
D2 F>A d3A|B/A/B/c/ d>B A<F F>A|B/A/B/c/ d>B A<F F>A|A<F F>D E2F>E|
D>d F>d A<F F>A|B/A/B/c/ d>B A<F F>A|D>d F>d A<F AB/c/|{c}d>B A<F E2 F>E|
D>d F>d A<F F>A|B>A B>c d2 f>e|(3efg (3gfe d<B B>d|A<F F>D E3||

